X:1
T: Dame Diane's Delight
C:
R:Reel
Q: 232
K:A
M:4/4
L:1/8
AB|cA AA A2 E2|F3A E2 EG|A2 AB c3A|B2 E2 e2 ed|
cd ec A2 E2|FD FA d3f|e2 A2 GA BG|A6 ed|
cd ec A2 E2|FG AF E2 EG|A2 AB cB AG|B2 EE e2 ed|
cd ec A2 E2|F2 DF Ad f2|e2 A2 GA BG|A6 cd|
e2 A2 A2 de|f2 A2 A2 cd|e2 A2 a3A|B2 E2 ed cB|
cd e2 A4|FG AF D2 F2|cd ec e2 dB|A4 A2 cd|
e2 ce a2 de|f2 df a2 cd|e2 A2 ag fe|d2 EE ed cB|
cd ec A2 a2|FG AF d3f|e2 a2 e2 dB|A6||
